X: 2628
T: Banana In The Ear
R: jig
M: 6/8
K: Dmajor
A|:d2A BdA|BAF DEF|E2e e2d|cBA ABc|
d2A B/c/dA|BAF DEF|E2e e2d|1 cBc d2A:|2 cBc d2c||
|:~d3 ~f3|faf def|~e3 ~g3|gbg efg|
~f3 ~a3|afd BAF|E2e e2d|1 cBc d2c:|2 cBc d2A||

